icons/document.svg

<svg xmlns="http://www.w3.org/2000/svg" style="isolation:isolate" width="96" height="96"><path d="M20 0h56c2.1 0 4.2.8 5.7 2.3C83.2 3.8 84 5.9 84 8v80c0 2.1-.8 4.2-2.3 5.7-1.5 1.5-3.6 2.3-5.7 2.3H20c-2.1 0-4.2-.8-5.7-2.3-1.5-1.5-2.3-3.6-2.3-5.7V8c0-2.1.8-4.2 2.3-5.7C15.8.8 17.9 0 20 0zm0 8h56v80H20V8zm12 20c-1.1 0-2.1-.4-2.8-1.2-.8-.7-1.2-1.7-1.2-2.8 0-1.1.4-2.1 1.2-2.8.7-.8 1.7-1.2 2.8-1.2h16c1.1 0 2.1.4 2.8 1.2.8.7 1.2 1.7 1.2 2.8 0 1.1-.4 2.1-1.2 2.8-.7.8-1.7 1.2-2.8 1.2H32zm0 16c-1.1 0-2.1-.4-2.8-1.2-.8-.7-1.2-1.7-1.2-2.8 0-1.1.4-2.1 1.2-2.8.7-.8 1.7-1.2 2.8-1.2h32c1.1 0 2.1.4 2.8 1.2.8.7 1.2 1.7 1.2 2.8 0 1.1-.4 2.1-1.2 2.8-.7.8-1.7 1.2-2.8 1.2H32zm0 16c-1.1 0-2.1-.4-2.8-1.2-.8-.7-1.2-1.7-1.2-2.8 0-1.1.4-2.1 1.2-2.8.7-.8 1.7-1.2 2.8-1.2h32c1.1 0 2.1.4 2.8 1.2.8.7 1.2 1.7 1.2 2.8 0 1.1-.4 2.1-1.2 2.8-.7.8-1.7 1.2-2.8 1.2H32zm0 16c-1.1 0-2.1-.4-2.8-1.2-.8-.7-1.2-1.7-1.2-2.8 0-1.1.4-2.1 1.2-2.8.7-.8 1.7-1.2 2.8-1.2h32c1.1 0 2.1.4 2.8 1.2.8.7 1.2 1.7 1.2 2.8 0 1.1-.4 2.1-1.2 2.8-.7.8-1.7 1.2-2.8 1.2H32z" fill-rule="evenodd" fill="#454545"/></svg>

<?xml version="1.0" standalone="no"?><!-- Generator: Gravit.io --><svg xmlns="http://www.w3.org/2000/svg" xmlns:xlink="http://www.w3.org/1999/xlink" style="isolation:isolate" width="96" height="96"><path d=" M 20 0 L 76 0 C 78.1 0 80.2 0.8 81.7 2.3 C 83.2 3.8 84 5.9 84 8 L 84 88 C 84 90.1 83.2 92.2 81.7 93.7 C 80.2 95.2 78.1 96 76 96 L 20 96 C 17.9 96 15.8 95.2 14.3 93.7 C 12.8 92.2 12 90.1 12 88 L 12 8 C 12 5.9 12.8 3.8 14.3 2.3 C 15.8 0.8 17.9 0 20 0 Z  M 20 8 L 76 8 L 76 88 L 20 88 L 20 8 Z  M 32 28 C 30.9 28 29.9 27.6 29.2 26.8 C 28.4 26.1 28 25.1 28 24 C 28 22.9 28.4 21.9 29.2 21.2 C 29.9 20.4 30.9 20 32 20 L 48 20 C 49.1 20 50.1 20.4 50.8 21.2 C 51.6 21.9 52 22.9 52 24 C 52 25.1 51.6 26.1 50.8 26.8 C 50.1 27.6 49.1 28 48 28 L 32 28 Z  M 32 44 C 30.9 44 29.9 43.6 29.2 42.8 C 28.4 42.1 28 41.1 28 40 C 28 38.9 28.4 37.9 29.2 37.2 C 29.9 36.4 30.9 36 32 36 L 64 36 C 65.1 36 66.1 36.4 66.8 37.2 C 67.6 37.9 68 38.9 68 40 C 68 41.1 67.6 42.1 66.8 42.8 C 66.1 43.6 65.1 44 64 44 L 32 44 Z  M 32 60 C 30.9 60 29.9 59.6 29.2 58.8 C 28.4 58.1 28 57.1 28 56 C 28 54.9 28.4 53.9 29.2 53.2 C 29.9 52.4 30.9 52 32 52 L 64 52 C 65.1 52 66.1 52.4 66.8 53.2 C 67.6 53.9 68 54.9 68 56 C 68 57.1 67.6 58.1 66.8 58.8 C 66.1 59.6 65.1 60 64 60 L 32 60 Z  M 32 76 C 30.9 76 29.9 75.6 29.2 74.8 C 28.4 74.1 28 73.1 28 72 C 28 70.9 28.4 69.9 29.2 69.2 C 29.9 68.4 30.9 68 32 68 L 64 68 C 65.1 68 66.1 68.4 66.8 69.2 C 67.6 69.9 68 70.9 68 72 C 68 73.1 67.6 74.1 66.8 74.8 C 66.1 75.6 65.1 76 64 76 L 32 76 Z " fill-rule="evenodd" fill="#454545"/></svg>
